X:1
T:Auprs de ma blonde
C:Traditionnel, fichier abc : Bernard Loffet
L:1/8
Q:306
M:6/8
K:C
 z4z[eC,] | [e2C,,2][fG,] [e2G,,2][dG,] | [c2C,,2]C, [c2C,,2][cC,] | [g2C,,2][gC,] [a2F,,2][aF,] | \
 [g2G,,2]G, G,,2[eG,] | [e2C,,2][fG,] [e2G,,2][dG,] | [c2C,,2]C, [c2C,,2][cC,] | [g2C,,2][gC,] [a2F,,2][aF,] | \
 [g2G,,2]G, G,,2[gG,] | [a2F,,2][aF,] [a2F,,2][eF,] | [f2F,,2]F, [f2F,,2][fF,] | [g2G,,2][gG,] [g2G,,2][dG,] | \
 [e2C,,2]C, C,,2C, | [c2C,,2]C, [dG,,]e[fG,] | [e2C,,2]C, [g2C,,2]C, | [d2G,,2][fG,] [e2G,,2][dG,] | \
 [c2F,,2][AF,] [G2G,,2]G, | [c2C,,2]C, [dG,,]e[fG,] | [e2C,,2]C, [g2C,,2]C, | [d2G,,2][fG,] [e2G,,2][dG,] | \
 [c2C,,2]C, C,,3 | \
W:Created with TablEdit http://www.tabledit.com/ by Bernard Loffet
